build/system/DarkModeOutline.svg

<svg xmlns="http://www.w3.org/2000/svg" fill="none" viewBox="0 0 24 24" focusable="false"><path d="M0 0H24V24H0z"/><path fill="#74767B" fill-rule="evenodd" d="M18.6196 13.7308C18.8553 13.6229 19.1272 13.8222 19.0543 14.071C18.1601 17.122 15.3403 19.3501 12.0001 19.3501C7.9408 19.3501 4.6501 16.0594 4.6501 12.0001C4.6501 8.66 6.87806 5.84026 9.92893 4.94595C10.1777 4.87304 10.377 5.14493 10.2691 5.38062C9.90392 6.17851 9.70011 7.06596 9.70011 7.99993C9.70011 11.4793 12.5207 14.2999 16.0001 14.2999C16.9342 14.2999 17.8217 14.0961 18.6196 13.7308ZM20.6501 12.0001C20.6501 11.6411 20.3591 11.3501 20.0001 11.3501C19.7452 11.3501 19.5637 11.5163 19.3894 11.6758C19.3626 11.7003 19.336 11.7246 19.3094 11.7482C18.4277 12.5272 17.2691 12.9999 16.0001 12.9999C13.2387 12.9999 11.0001 10.7614 11.0001 7.99993C11.0001 6.73091 11.4729 5.57231 12.2519 4.69064C12.2756 4.66379 12.3001 4.63701 12.3248 4.61007C12.4842 4.436 12.6501 4.25486 12.6501 4.0001C12.6501 3.64111 12.3591 3.3501 12.0001 3.3501C7.22283 3.3501 3.3501 7.22283 3.3501 12.0001C3.3501 16.7774 7.22283 20.6501 12.0001 20.6501C16.7774 20.6501 20.6501 16.7774 20.6501 12.0001Z"/></svg>

<svg xmlns="http://www.w3.org/2000/svg" fill="none" viewBox="0 0 24 24" focusable="false"><path fill="#74767B" fill-rule="evenodd" d="M18.61 13.73c.24-.11.51.09.44.34A7.35 7.35 0 0 1 12 19.35c-4.06 0-7.36-3.3-7.36-7.35 0-3.34 2.23-6.16 5.28-7.06.25-.07.45.2.34.44-.36.79-.56 1.68-.56 2.61a6.3 6.3 0 0 0 6.3 6.3c.93 0 1.82-.2 2.61-.56M20.64 12c0-.36-.29-.65-.64-.65-.26 0-.44.16-.62.32-.02.03-.05.05-.08.07-.88.78-2.04 1.25-3.3 1.25-2.77 0-5-2.23-5-5 0-1.26.47-2.42 1.25-3.3.02-.03.05-.06.07-.08.16-.18.32-.36.32-.61 0-.36-.29-.65-.64-.65-4.78 0-8.65 3.87-8.65 8.65 0 4.77 3.87 8.65 8.65 8.65 4.77 0 8.64-3.88 8.64-8.65"/></svg>
